priv/static/svgs/icons_new/software-wrench.svg

<svg width="32" height="32" viewBox="0 0 32 32" fill="none" xmlns="http://www.w3.org/2000/svg">
<path d="M17.956 13.9294C16.8826 12.855 16.8872 11.1116 17.9664 10.043L20.0709 7.95894C20.602 7.43305 20.3767 6.5487 19.6304 6.50892C19.5193 6.503 19.4075 6.5 19.295 6.5C15.8674 6.5 13.0887 9.28111 13.0887 12.7118C13.0887 13.2778 13.1644 13.8261 13.306 14.3471L7.39824 20.2603C6.20066 21.4589 6.20066 23.4024 7.39824 24.601C8.59582 25.7997 10.5375 25.7997 11.7351 24.601L17.6326 18.6982C18.1616 18.8451 18.7191 18.9236 19.295 18.9236C22.7225 18.9236 25.5012 16.1425 25.5012 12.7118C25.5012 12.5241 25.4928 12.3383 25.4766 12.1548C25.4117 11.4237 24.5414 11.2142 24.0226 11.7335L21.8286 13.9294C20.7593 14.9998 19.0254 14.9998 17.956 13.9294Z" stroke="black"/>
</svg>

<svg width="32" height="32" viewBox="0 0 32 32" fill="none" xmlns="http://www.w3.org/2000/svg">
  <symbol id="item" viewBox="0 0 32 32" stroke-width="1" fill="none">
    <path d="M17.956 13.93a2.743 2.743 0 0 1 .01-3.887l2.105-2.084c.531-.526.306-1.41-.44-1.45a6.21 6.21 0 0 0-6.542 6.203c0 .566.075 1.114.217 1.635L7.398 20.26a3.071 3.071 0 0 0 0 4.341 3.065 3.065 0 0 0 4.337 0l5.898-5.903a6.209 6.209 0 0 0 7.844-6.543c-.065-.731-.936-.94-1.454-.421l-2.194 2.195a2.737 2.737 0 0 1-3.873 0Z" stroke="currentColor"/>
  </symbol>
</svg>
